lib/logotmp/nrk-logo-nrk-sorlandet-title-below-on-light.svg

<svg width="77" height="41" viewBox="0 0 77 41" fill="none" xmlns="http://www.w3.org/2000/svg">
<path d="M0 17.9976V5.99865H4V17.9976H0ZM9.24381 7.90834L11.5081 17.9976H7.19917L4.49549 5.99865H6.91217C7.46635 5.99146 8.00406 6.18681 8.4245 6.54795C8.84562 6.89394 9.08495 7.37426 9.24381 7.90834ZM12 17.9976V5.99865H16V17.9976H12ZM19.0105 10.5617C18.5862 10.5658 18.1687 10.4548 17.8025 10.2405C17.4412 10.0317 17.1411 9.73152 16.9323 9.37016C16.7178 9.00389 16.6068 8.58632 16.611 8.16188C16.6061 7.74002 16.7172 7.32494 16.9323 6.96199C17.1433 6.60455 17.4431 6.30765 17.8025 6.10008C18.1689 5.88606 18.5862 5.77507 19.0105 5.77894C19.4322 5.7744 19.8471 5.88549 20.2102 6.10008C20.566 6.30947 20.8626 6.60612 21.072 6.96199C21.2868 7.32504 21.3979 7.74005 21.3933 8.16188C21.3973 8.58629 21.2863 9.00379 21.072 9.37016C20.8649 9.72993 20.5679 10.0298 20.2102 10.2405C19.8471 10.4555 19.4324 10.5666 19.0105 10.5617ZM22 17.9976V5.99865H26V17.9976H22ZM30.9737 12.5558C30.9848 12.5674 31.0693 12.7054 31.2272 12.9698C31.3851 13.2342 31.5906 13.5722 31.8439 13.9838C32.0974 14.3953 32.3649 14.8318 32.6463 15.2936C32.9278 15.7553 33.1926 16.1919 33.4408 16.6033C33.6881 17.0147 33.9697 17.4795 34.2857 17.9976H29.9598C29.6893 17.5582 29.4441 17.161 29.2245 16.8061C29.0048 16.4512 28.7713 16.0681 28.5238 15.6569C28.2758 15.2461 28.0306 14.8461 27.7882 14.457C27.5458 14.0679 27.3375 13.7272 27.1633 13.4346C26.9883 13.1419 26.8671 12.9447 26.7997 12.8431C26.6325 12.591 26.5336 12.2999 26.5127 11.9981C26.5294 11.7085 26.6226 11.4285 26.7828 11.1867C26.8503 11.074 26.9743 10.874 27.1545 10.5867C27.3348 10.2994 27.546 9.95861 27.7882 9.56428C28.0304 9.16995 28.2756 8.76716 28.5238 8.35593C28.772 7.9447 29.0055 7.55879 29.2245 7.19826C29.4445 6.83811 29.6897 6.43814 29.9598 5.99837H34.2857L30.9396 11.4571C30.8361 11.6191 30.7777 11.8059 30.7706 11.9981C30.7818 12.1999 30.8528 12.3939 30.9737 12.5558Z" fill="#0A2343"/>
<path d="M8.29115 30.3047C8.42077 30.6654 8.48558 31.0937 8.48558 31.5897C8.48558 32.266 8.37005 32.8324 8.13898 33.2889C7.90792 33.7453 7.58104 34.1145 7.15836 34.3963C6.73568 34.6781 6.24537 34.881 5.68744 35.0049C5.1295 35.1289 4.52929 35.1909 3.88682 35.1909C3.6163 35.1909 3.3486 35.1796 3.08373 35.1571C2.81885 35.1346 2.55397 35.1036 2.28909 35.0641C2.02421 35.0247 1.75087 34.9683 1.46909 34.895C1.1873 34.8218 0.894241 34.7288 0.589911 34.6161L0.370117 32.9423C0.640633 33.0437 0.925237 33.1423 1.22393 33.2381C1.52263 33.3339 1.82977 33.4157 2.14537 33.4833C2.46098 33.5509 2.77658 33.6045 3.09218 33.6439C3.40778 33.6834 3.71211 33.7031 4.00517 33.7031C4.35458 33.7031 4.66737 33.6805 4.94352 33.6355C5.21967 33.5904 5.46482 33.5171 5.67898 33.4157C5.89314 33.3142 6.07348 33.179 6.22001 33.0099C6.36654 32.8408 6.47926 32.6436 6.55816 32.4181C6.63706 32.1927 6.67651 31.9335 6.67651 31.6404C6.67651 31.3473 6.63424 31.1163 6.5497 30.9134C6.46517 30.7105 6.34964 30.5414 6.20311 30.4062C6.05658 30.2709 5.87905 30.1526 5.67053 30.0511C5.46201 29.9497 5.22812 29.8623 4.96888 29.7891C4.70964 29.7158 4.42785 29.6454 4.12352 29.5777C3.75156 29.4988 3.38806 29.403 3.033 29.2903C2.67795 29.1776 2.34826 29.0423 2.04393 28.8845C1.7396 28.7267 1.46909 28.5295 1.23239 28.2928C0.995684 28.0561 0.812523 27.7715 0.682901 27.439C0.553279 27.1065 0.488468 26.7091 0.488468 26.247C0.488468 25.6609 0.592729 25.1537 0.801251 24.7254C1.00977 24.297 1.30847 23.942 1.69733 23.6602C2.0862 23.3784 2.54551 23.1699 3.07527 23.0346C3.60503 22.8994 4.19678 22.8317 4.85053 22.8317C5.14359 22.8317 5.43101 22.8458 5.7128 22.874C5.99458 22.9022 6.27074 22.9445 6.54125 23.0008C6.81177 23.0572 7.07946 23.1248 7.34434 23.2037C7.60922 23.2826 7.86001 23.384 8.09671 23.508L7.86001 24.9959C7.65713 24.8832 7.43451 24.7845 7.19218 24.7C6.94984 24.6155 6.69905 24.545 6.43981 24.4886C6.18056 24.4323 5.91568 24.39 5.64517 24.3618C5.37465 24.3337 5.10977 24.3196 4.85053 24.3196C4.53493 24.3196 4.24469 24.3393 3.97981 24.3788C3.71493 24.4182 3.48104 24.4858 3.27816 24.5816C3.07527 24.6774 2.89775 24.7958 2.74558 24.9367C2.59342 25.0776 2.4807 25.2495 2.40744 25.4524C2.33417 25.6552 2.29754 25.8863 2.29754 26.1456C2.29754 26.4048 2.33417 26.6274 2.40744 26.8134C2.4807 26.9994 2.5906 27.1572 2.73713 27.2868C2.88366 27.4164 3.05555 27.5291 3.2528 27.6249C3.45005 27.7207 3.67548 27.8025 3.92909 27.8701C4.18269 27.9377 4.45603 28.0054 4.74909 28.073C5.13232 28.1519 5.50427 28.2477 5.86496 28.3604C6.22565 28.4731 6.56661 28.6112 6.88785 28.7746C7.20909 28.9381 7.49087 29.1438 7.73321 29.3917C7.97555 29.6397 8.16153 29.944 8.29115 30.3047ZM18.8835 26.7035L17.9057 27.7405C18.0297 27.9039 18.1481 28.0786 18.2495 28.2674C18.6045 28.9268 18.7821 29.7017 18.7821 30.5922C18.7821 31.5277 18.5905 32.3392 18.2072 33.0268C17.824 33.7144 17.2971 34.2441 16.6264 34.6161C15.9558 34.988 15.1808 35.174 14.3017 35.174C13.4225 35.174 12.6983 34.9993 12.0615 34.6499C11.9177 34.571 11.7825 34.4808 11.6529 34.385L10.7511 35.36L9.97342 34.6499L10.9146 33.6467C10.7934 33.4833 10.6807 33.3086 10.5821 33.1198C10.2327 32.4491 10.058 31.6517 10.058 30.7274C10.058 29.8032 10.2411 29.0029 10.6074 28.3266C10.9738 27.6503 11.4866 27.1262 12.146 26.7542C12.8054 26.3823 13.5747 26.1963 14.4538 26.1963C15.333 26.1963 16.1107 26.3766 16.7532 26.7373C16.8913 26.8134 17.0181 26.9007 17.1421 26.9937L18.0889 25.9934L18.8835 26.7035ZM11.867 30.626C11.867 31.3163 11.9685 31.894 12.1742 32.3646L16.1079 28.1152C15.9558 27.9772 15.7839 27.8616 15.5894 27.7743C15.2738 27.6334 14.9019 27.5629 14.4736 27.5629C13.9438 27.5629 13.4845 27.6757 13.0956 27.9011C12.7067 28.1265 12.4052 28.4647 12.1911 28.9155C11.9769 29.3664 11.8698 29.9356 11.8698 30.6232L11.867 30.626ZM16.9899 30.626C16.9899 30.1638 16.9364 29.744 16.8293 29.3664C16.787 29.2199 16.7363 29.0818 16.6799 28.9522L12.7434 33.2015C12.842 33.2945 12.9434 33.379 13.059 33.4495C13.4366 33.6862 13.879 33.8045 14.3862 33.8045C14.8934 33.8045 15.3415 33.689 15.7303 33.4579C16.1192 33.2269 16.4263 32.8746 16.6518 32.4012C16.8772 31.9278 16.9899 31.3361 16.9899 30.626ZM24.4798 26.3231C24.1642 26.4076 23.8655 26.5372 23.5837 26.7119C23.3019 26.8867 23.0371 27.098 22.7891 27.346C22.7496 27.3854 22.7102 27.4305 22.6707 27.4728V26.2132L20.9462 26.4668V35.0049H22.6707V28.6168C22.8004 28.5267 22.9328 28.4421 23.0681 28.3689C23.2428 28.273 23.4175 28.1913 23.5922 28.1237C23.7669 28.0561 23.9444 27.9969 24.1248 27.9462C24.3051 27.8955 24.4939 27.8588 24.6911 27.8363C24.8884 27.8137 25.0941 27.8081 25.3083 27.8194L25.5111 26.2301C25.1392 26.2076 24.7954 26.2385 24.4798 26.3231ZM29.7464 33.7623C29.6957 33.7679 29.6365 33.7707 29.5689 33.7707C29.4223 33.7707 29.2984 33.7482 29.1969 33.7031C29.0955 33.658 29.0109 33.5875 28.9433 33.4917C28.8757 33.3959 28.8278 33.2748 28.7996 33.1282C28.7714 32.9817 28.7573 32.807 28.7573 32.6041V22.24L27.0328 22.4936V33.3649C27.0328 33.6918 27.0779 33.9708 27.1681 34.2018C27.2582 34.4329 27.3878 34.6217 27.5569 34.7682C27.726 34.9148 27.9261 35.019 28.1571 35.081C28.3882 35.143 28.639 35.174 28.9095 35.174C29.0448 35.174 29.1744 35.1684 29.2984 35.1571C29.4223 35.1458 29.5435 35.1289 29.6619 35.1064C29.7802 35.0838 29.8788 35.0613 29.9577 35.0388L30.1268 33.7031L29.9239 33.7369C29.8563 33.7482 29.7971 33.7566 29.7464 33.7623ZM39.4089 33.9229C39.499 33.9116 39.5949 33.8891 39.6963 33.8552L39.5103 34.988C39.454 35.0106 39.3892 35.0303 39.3159 35.0472C39.2426 35.0641 39.1609 35.0838 39.0707 35.1064C38.9806 35.1289 38.8876 35.143 38.7918 35.1486C38.696 35.1543 38.5973 35.1571 38.4959 35.1571C38.1352 35.1571 37.814 35.0979 37.5322 34.9796C37.2504 34.8612 37.0306 34.6696 36.8728 34.4047C36.7883 34.2638 36.7291 34.0976 36.6896 33.906C36.5826 34.03 36.4727 34.1511 36.3571 34.261C36.0472 34.5541 35.6921 34.7795 35.292 34.9373C34.8918 35.0951 34.4156 35.174 33.8633 35.174C33.2659 35.174 32.7672 35.0613 32.367 34.8359C31.9669 34.6104 31.6682 34.3146 31.4709 33.9482C31.2737 33.5819 31.1751 33.1846 31.1751 32.7563C31.1751 32.3054 31.3019 31.8912 31.5555 31.5136C31.8091 31.136 32.1951 30.8232 32.7136 30.5752C33.2321 30.3273 33.8859 30.1807 34.6749 30.1357L36.6502 30.0032V29.5805C36.6502 29.2537 36.6192 28.9691 36.5516 28.7267C36.4839 28.4844 36.3712 28.2843 36.2134 28.1265C36.0556 27.9687 35.8386 27.8504 35.5625 27.7715C35.2863 27.6926 34.9454 27.6531 34.5396 27.6531C34.3142 27.6531 34.0859 27.6616 33.8549 27.6785C33.6238 27.6954 33.3899 27.7264 33.1532 27.7715C32.9165 27.8166 32.6714 27.8729 32.4177 27.9405C32.1641 28.0082 31.8964 28.0927 31.6147 28.1941L31.8175 26.757C32.0993 26.6443 32.3952 26.5457 32.7052 26.4612C33.0151 26.3766 33.3448 26.3118 33.6942 26.2667C34.0437 26.2216 34.3987 26.1991 34.7594 26.1991C35.2553 26.1991 35.7006 26.2442 36.0951 26.3344C36.4896 26.4245 36.8305 26.5541 37.118 26.7232C37.4054 26.8923 37.6393 27.1008 37.8196 27.3488C37.9999 27.5968 38.1352 27.8842 38.2254 28.2111C38.3155 28.5379 38.3606 28.8986 38.3606 29.2931L38.3268 32.776C38.3155 33.193 38.3775 33.4917 38.5128 33.6721C38.6481 33.8524 38.8678 33.9426 39.1722 33.9426C39.2398 33.9426 39.3187 33.937 39.4089 33.9257V33.9229ZM36.6389 32.9113L36.6474 31.2346H35.168C34.6157 31.2346 34.1761 31.2797 33.8492 31.3699C33.5223 31.4601 33.2856 31.601 33.1391 31.7926C32.9926 31.9842 32.9193 32.2491 32.9193 32.5872C32.9193 32.8464 32.9757 33.0691 33.0884 33.255C33.2011 33.441 33.3674 33.5847 33.5872 33.6862C33.807 33.7876 34.0746 33.8383 34.3903 33.8383C34.6382 33.8383 34.8777 33.8158 35.1088 33.7707C35.3399 33.7256 35.5597 33.6524 35.7682 33.5509C35.9767 33.4495 36.174 33.3255 36.3599 33.179C36.4586 33.1001 36.5516 33.0099 36.6417 32.9141L36.6389 32.9113ZM47.9301 26.5485C47.5018 26.3118 46.9608 26.1935 46.307 26.1935C45.8223 26.1935 45.3405 26.2695 44.8615 26.4217C44.3824 26.5739 43.9287 26.7908 43.5004 27.0726C43.337 27.1797 43.1792 27.2981 43.027 27.4192V26.2104L41.3025 26.464V35.0021H43.027V28.5802C43.1905 28.4844 43.3624 28.3942 43.5427 28.3153C43.785 28.2082 44.0274 28.1152 44.2697 28.0363C44.512 27.9574 44.7544 27.8983 44.9967 27.8588C45.239 27.8194 45.4729 27.7996 45.6984 27.7996C46.014 27.7996 46.2845 27.8419 46.5099 27.9265C46.7353 28.011 46.9213 28.1378 47.0678 28.3069C47.2144 28.4759 47.3215 28.6901 47.3891 28.9493C47.4567 29.2086 47.4905 29.5129 47.4905 29.8623V35.0021H49.2151V29.5073C49.2151 28.7408 49.108 28.1152 48.8938 27.6306C48.6797 27.1459 48.3584 26.7852 47.9301 26.5485ZM57.6856 22.4936L59.4101 22.2569V35.0049H58.0068L57.7955 34.2244C57.6687 34.3174 57.5419 34.4047 57.4151 34.4808C57.0318 34.7175 56.6401 34.8922 56.24 35.0049C55.8399 35.1177 55.4144 35.174 54.9635 35.174C54.1858 35.174 53.5179 35.0021 52.96 34.6583C52.4021 34.3146 51.9738 33.8271 51.6751 33.1959C51.3764 32.5647 51.227 31.8151 51.227 30.9472C51.227 29.9328 51.4243 29.0733 51.8188 28.3689C52.2133 27.6644 52.7346 27.1262 53.3827 26.7542C54.0308 26.3823 54.7325 26.1963 55.4876 26.1963C55.916 26.1963 56.3076 26.2329 56.6627 26.3062C57.0177 26.3794 57.3418 26.4724 57.6349 26.5851C57.6518 26.5908 57.6687 26.5992 57.6856 26.6077V22.4936ZM57.6856 33.1141V27.9039C57.5982 27.8729 57.5052 27.8363 57.4235 27.8109C57.1586 27.7264 56.8966 27.6644 56.6373 27.6249C56.3781 27.5855 56.1076 27.5658 55.8258 27.5658C55.2397 27.5658 54.7353 27.6869 54.3126 27.9293C53.8899 28.1716 53.5658 28.5267 53.3404 28.9944C53.115 29.4622 53.0023 30.0455 53.0023 30.7443C53.0023 31.4432 53.1037 32.0039 53.3066 32.4604C53.5095 32.9169 53.8026 33.255 54.1858 33.4748C54.569 33.6946 55.0311 33.8045 55.5722 33.8045C55.9329 33.8045 56.3358 33.7228 56.781 33.5594C57.0656 33.4551 57.3672 33.3029 57.6856 33.1141ZM69.2924 29.0198C69.4333 29.6284 69.4643 30.3273 69.3854 31.1163H63.2762C63.2988 31.5474 63.3579 31.9194 63.4594 32.2322C63.589 32.6267 63.7806 32.9394 64.0342 33.1705C64.2878 33.4016 64.6006 33.565 64.9726 33.6608C65.3445 33.7566 65.7841 33.8045 66.2914 33.8045C66.5393 33.8045 66.7873 33.7904 67.0353 33.7623C67.2832 33.7341 67.5256 33.689 67.7623 33.627C67.999 33.565 68.2272 33.4946 68.447 33.4157C68.6668 33.3368 68.8838 33.2579 69.0979 33.179L68.9796 34.4808C68.6753 34.6386 68.3709 34.7682 68.0666 34.8697C67.7623 34.9711 67.4382 35.0472 67.0944 35.0979C66.7507 35.1486 66.3533 35.174 65.9025 35.174C64.9557 35.174 64.1554 35.0078 63.5017 34.6752C62.8479 34.3427 62.3548 33.8524 62.0223 33.2043C61.6898 32.5562 61.5235 31.77 61.5235 30.8458C61.5235 30.1469 61.6165 29.5129 61.8025 28.9437C61.9885 28.3745 62.259 27.887 62.614 27.4812C62.9691 27.0755 63.4002 26.7599 63.9074 26.5344C64.4146 26.309 64.9895 26.1963 65.632 26.1963C66.2744 26.1963 66.8465 26.3034 67.3481 26.5175C67.8496 26.7317 68.2639 27.0501 68.5907 27.4728C68.9176 27.8955 69.1515 28.4111 69.2924 29.0198ZM63.527 28.9268C63.4228 29.2029 63.3551 29.5383 63.3129 29.9159H67.7595C67.7595 29.5777 67.72 29.2593 67.6355 28.9691C67.5059 28.5182 67.2776 28.166 66.9507 27.9124C66.6239 27.6588 66.1899 27.5319 65.6489 27.5319C65.1078 27.5319 64.6908 27.6475 64.3301 27.8785C63.9694 28.1096 63.7017 28.459 63.527 28.9268ZM76.2159 33.5932C76.137 33.6101 76.0496 33.627 75.9538 33.6439C75.858 33.6608 75.7622 33.6777 75.6664 33.6946C75.5706 33.7115 75.4776 33.7228 75.3874 33.7284C75.2973 33.7341 75.2127 33.7369 75.1338 33.7369C74.8408 33.7369 74.59 33.6862 74.3814 33.5847C74.1729 33.4833 74.0123 33.3339 73.8996 33.1367C73.7869 32.9394 73.7305 32.6999 73.7305 32.4181V27.7348H76.1144L76.3004 26.3823H73.7305V23.7109L72.006 24.3196V26.3823H70.7041L70.5182 27.7348H72.006V32.7732C72.006 33.1564 72.0567 33.4861 72.1581 33.7623C72.2596 34.0384 72.392 34.2667 72.5555 34.447C72.7189 34.6273 72.9105 34.7682 73.1303 34.8697C73.3501 34.9711 73.584 35.0444 73.832 35.0895C74.0799 35.1346 74.3223 35.1571 74.559 35.1571C74.7393 35.1571 74.9168 35.1515 75.0916 35.1402C75.2663 35.1289 75.4269 35.112 75.5734 35.0895C75.7199 35.0669 75.858 35.0416 75.9876 35.0134C76.1173 34.9852 76.2271 34.9599 76.3173 34.9373L76.4188 33.534C76.3624 33.5566 76.2948 33.5763 76.2159 33.5932Z" fill="#1767CE"/>
</svg>

<svg xmlns="http://www.w3.org/2000/svg" viewBox="0 0 77 41"><path fill="#0A2343" d="M0 17.998v-12h4v12H0Zm9.244-10.09 2.264 10.09H7.2l-2.704-12h2.417a2.276 2.276 0 0 1 1.513.55c.42.346.66.826.819 1.36ZM12 17.998v-12h4v12h-4Zm7.01-7.436a2.381 2.381 0 0 1-2.078-1.192 2.345 2.345 0 0 1-.321-1.208 2.301 2.301 0 0 1 .321-1.2A2.41 2.41 0 0 1 20.21 6.1c.356.21.653.506.862.862.215.363.326.778.321 1.2a2.35 2.35 0 0 1-.321 1.208 2.4 2.4 0 0 1-.862.87 2.301 2.301 0 0 1-1.2.322ZM22 17.998v-12h4v12h-4Zm8.974-5.442c.01.011.095.15.253.414s.364.602.617 1.014a316.22 316.22 0 0 1 1.597 2.62c.247.41.529.876.845 1.394H29.96c-.27-.44-.516-.837-.736-1.192-.22-.355-.453-.738-.7-1.15-.248-.41-.493-.81-.736-1.199-.242-.39-.45-.73-.625-1.022a18.04 18.04 0 0 0-.363-.592 1.747 1.747 0 0 1-.287-.845c.016-.29.11-.57.27-.811.067-.113.191-.313.371-.6a182.106 182.106 0 0 0 1.37-2.23l.7-1.159.736-1.2h4.326l-3.346 5.46a1.079 1.079 0 0 0-.17.54c.012.202.083.396.204.558Z"/><path fill="#1767CE" d="M8.291 30.305c.13.36.195.789.195 1.285 0 .676-.116 1.242-.347 1.699a2.862 2.862 0 0 1-.98 1.107 4.308 4.308 0 0 1-1.472.609 8.29 8.29 0 0 1-1.8.186c-.27 0-.538-.011-.803-.034a12.64 12.64 0 0 1-.795-.093 7.846 7.846 0 0 1-.82-.169 9.196 9.196 0 0 1-.88-.279L.37 32.942c.27.102.555.2.854.296.299.096.606.178.921.245.316.068.632.122.947.16.316.04.62.06.913.06.35 0 .662-.023.939-.068.276-.045.52-.118.735-.22.214-.1.394-.236.541-.405.147-.17.26-.366.338-.592a2.35 2.35 0 0 0 .119-.778c0-.293-.043-.524-.127-.727a1.423 1.423 0 0 0-.347-.507 2.193 2.193 0 0 0-.532-.355 4.236 4.236 0 0 0-.702-.262c-.26-.073-.541-.144-.845-.211a11.467 11.467 0 0 1-1.091-.288 6.257 6.257 0 0 1-.99-.405 3.265 3.265 0 0 1-.81-.592 2.448 2.448 0 0 1-.55-.854c-.13-.332-.195-.73-.195-1.192 0-.586.105-1.093.313-1.522.209-.428.507-.783.896-1.065.39-.282.849-.49 1.378-.625a7.184 7.184 0 0 1 1.776-.203c.293 0 .58.014.862.042.282.028.558.07.828.127.27.056.538.124.803.203.265.079.516.18.753.304l-.237 1.488a4.264 4.264 0 0 0-.668-.296 6.443 6.443 0 0 0-.752-.211 7.69 7.69 0 0 0-1.59-.169c-.315 0-.605.02-.87.059-.265.04-.499.107-.702.203-.203.095-.38.214-.532.355-.153.14-.265.313-.339.515-.073.203-.11.434-.11.694 0 .259.037.481.11.667.074.186.184.344.33.474.147.13.319.242.516.338.197.096.422.177.676.245.254.068.527.135.82.203.383.079.755.175 1.116.287.36.113.702.251 1.023.415.321.163.603.369.845.617.243.248.429.552.558.913Zm10.593-3.602-.978 1.038c.124.163.242.338.344.526.355.66.532 1.435.532 2.325 0 .936-.192 1.747-.575 2.435a4.008 4.008 0 0 1-1.58 1.59c-.671.371-1.446.557-2.325.557-.88 0-1.604-.175-2.24-.524a3.612 3.612 0 0 1-.41-.265l-.9.975-.779-.71.942-1.003a3.966 3.966 0 0 1-.333-.527c-.35-.67-.524-1.468-.524-2.393 0-.924.183-1.724.55-2.4a3.9 3.9 0 0 1 1.538-1.573c.66-.372 1.429-.558 2.308-.558.879 0 1.657.18 2.3.541.137.076.264.164.388.257l.947-1 .795.71Zm-7.017 3.923c0 .69.101 1.268.307 1.739l3.934-4.25a1.967 1.967 0 0 0-.519-.34c-.315-.142-.687-.212-1.115-.212-.53 0-.99.113-1.378.338-.39.226-.69.564-.905 1.015-.214.45-.321 1.02-.321 1.707l-.003.003Zm5.123 0a4.61 4.61 0 0 0-.16-1.26 3.404 3.404 0 0 0-.15-.414l-3.937 4.25c.099.093.2.177.316.248.378.236.82.354 1.327.354s.956-.115 1.344-.346c.39-.231.696-.583.922-1.057.225-.473.338-1.065.338-1.775Zm7.49-4.303a3.324 3.324 0 0 0-.896.389 4.414 4.414 0 0 0-.795.634c-.04.04-.079.084-.118.127v-1.26l-1.725.254v8.538h1.725v-6.388a4.23 4.23 0 0 1 .921-.493c.175-.068.352-.127.533-.178a3.594 3.594 0 0 1 1.183-.127l.203-1.589a3.216 3.216 0 0 0-1.031.093Zm5.266 7.44a1.64 1.64 0 0 1-.177.008.914.914 0 0 1-.372-.068.61.61 0 0 1-.254-.211.927.927 0 0 1-.143-.364 2.812 2.812 0 0 1-.043-.524V22.24l-1.724.254v10.87c0 .328.045.607.135.838.09.23.22.42.389.566.169.147.37.251.6.313.231.062.482.093.753.093a3.79 3.79 0 0 0 1.048-.135l.169-1.336-.203.034c-.068.011-.127.02-.178.025Zm9.663.16c.09-.011.186-.034.287-.068l-.186 1.133a1.321 1.321 0 0 1-.194.06c-.073.016-.155.036-.245.058-.09.023-.183.037-.28.043a4.986 4.986 0 0 1-.295.008c-.36 0-.682-.06-.964-.177a1.365 1.365 0 0 1-.66-.575 1.583 1.583 0 0 1-.182-.499 4.958 4.958 0 0 1-.333.355c-.31.293-.665.518-1.065.676-.4.158-.876.237-1.429.237-.597 0-1.096-.113-1.496-.338a2.228 2.228 0 0 1-.896-.888 2.475 2.475 0 0 1-.296-1.192c0-.45.127-.865.38-1.242.254-.378.64-.69 1.159-.939.518-.248 1.172-.394 1.96-.44l1.976-.132v-.422c0-.327-.03-.612-.098-.854a1.34 1.34 0 0 0-.339-.6c-.157-.158-.374-.277-.65-.355a3.778 3.778 0 0 0-1.023-.119c-.226 0-.454.009-.685.026a6.14 6.14 0 0 0-.702.093 9.979 9.979 0 0 0-1.538.423l.203-1.438c.281-.113.577-.211.887-.296.31-.084.64-.15.99-.194.349-.045.704-.068 1.064-.068.496 0 .942.045 1.336.135.395.09.736.22 1.023.39.287.168.521.377.702.625.18.248.315.535.405.862.09.327.136.688.136 1.082l-.034 3.483c-.011.417.05.716.186.896.135.18.355.27.66.27.067 0 .146-.005.236-.016v-.003Zm-2.77-1.012.008-1.676h-1.479c-.552 0-.992.045-1.319.135-.327.09-.563.231-.71.423-.146.191-.22.456-.22.794 0 .26.057.482.17.668.112.186.278.33.498.431.22.102.488.152.803.152.248 0 .488-.022.719-.067.23-.045.45-.119.66-.22.208-.102.405-.226.59-.372.1-.079.193-.17.283-.265l-.003-.003Zm11.291-6.363c-.428-.236-.97-.354-1.623-.354-.485 0-.967.076-1.446.228-.479.152-.932.369-1.36.65a6.41 6.41 0 0 0-.474.347V26.21l-1.724.254v8.538h1.724V28.58c.163-.096.335-.186.516-.265.242-.107.484-.2.727-.279.242-.079.484-.138.727-.177.242-.04.476-.06.701-.06.316 0 .587.043.812.128.225.084.411.21.558.38.146.169.254.383.321.642.068.26.101.564.101.913v5.14h1.725v-5.495c0-.766-.107-1.392-.321-1.876-.214-.485-.536-.846-.964-1.082Zm9.756-4.054 1.724-.237v12.748h-1.403l-.212-.78c-.126.092-.253.18-.38.256a4.616 4.616 0 0 1-1.175.524c-.4.113-.826.169-1.276.169-.778 0-1.446-.172-2.004-.516a3.357 3.357 0 0 1-1.285-1.462c-.299-.631-.448-1.38-.448-2.249 0-1.014.197-1.874.592-2.578.394-.705.916-1.243 1.564-1.615a4.158 4.158 0 0 1 2.105-.558 5.823 5.823 0 0 1 2.147.39.402.402 0 0 1 .05.022v-4.114Zm0 10.62v-5.21c-.088-.031-.18-.068-.263-.093a5.126 5.126 0 0 0-1.597-.245c-.586 0-1.09.12-1.513.363a2.384 2.384 0 0 0-.973 1.065c-.225.468-.338 1.052-.338 1.75 0 .7.102 1.26.305 1.716.203.457.496.795.879 1.015.383.22.845.33 1.386.33.36 0 .764-.082 1.209-.246.285-.104.586-.256.905-.445Zm11.606-4.094c.141.608.172 1.307.093 2.096h-6.109c.023.431.082.803.183 1.116.13.395.322.707.575.938.254.232.567.395.939.49.371.097.811.145 1.318.145.248 0 .496-.015.744-.043.248-.028.49-.073.727-.135.237-.062.465-.132.685-.211.22-.08.437-.158.65-.237l-.117 1.302a6.346 6.346 0 0 1-.913.389 5.702 5.702 0 0 1-.973.228c-.343.05-.74.076-1.191.076-.947 0-1.748-.166-2.401-.499a3.306 3.306 0 0 1-1.48-1.47c-.332-.649-.498-1.435-.498-2.36 0-.698.093-1.332.279-1.901.186-.57.456-1.057.811-1.463a3.684 3.684 0 0 1 1.293-.947c.508-.225 1.083-.338 1.725-.338.642 0 1.215.107 1.716.321.502.215.916.533 1.243.956.327.422.56.938.701 1.547Zm-5.765-.093a4.158 4.158 0 0 0-.214.989h4.447c0-.338-.04-.657-.125-.947-.13-.45-.357-.803-.684-1.057-.327-.253-.761-.38-1.302-.38s-.958.116-1.319.346c-.36.232-.628.581-.803 1.049Zm12.689 4.666a7.386 7.386 0 0 1-.262.05l-.288.052a2.498 2.498 0 0 1-.279.033 4.03 4.03 0 0 1-.253.009c-.293 0-.544-.05-.753-.152a1.091 1.091 0 0 1-.481-.448 1.427 1.427 0 0 1-.17-.719v-4.683h2.384l.186-1.353h-2.57v-2.671l-1.724.609v2.062h-1.302l-.186 1.353h1.488v5.038c0 .383.05.713.152.99.102.275.234.504.397.684.164.18.355.321.575.423.22.101.454.174.702.22.248.045.49.067.727.067.18 0 .358-.005.533-.017a5.546 5.546 0 0 0 .896-.127c.13-.028.24-.053.33-.076l.1-1.403a1.26 1.26 0 0 1-.202.06Z"/></svg>
